src/assets/planets/Uranus.svg

<svg  viewBox="0 0 485 369" fill="none" xmlns="http://www.w3.org/2000/svg">
<path d="M402.83 275.06C352.68 363.57 240.26 394.69 151.73 344.55C63.2001 294.41 32.1101 182 82.2601 93.45C132.41 4.90002 244.82 -26.18 333.35 24C421.88 74.18 453 186.53 402.83 275.06Z" fill="url(#paint0_radial_47_227)"/>
<path d="M402.83 275.06C352.68 363.57 240.26 394.69 151.73 344.55C63.2001 294.41 32.1101 182 82.2601 93.45C132.41 4.90002 244.82 -26.18 333.35 24C421.88 74.18 453 186.53 402.83 275.06Z" fill="url(#paint1_radial_47_227)"/>
<path style="mix-blend-mode:screen" opacity="0.3" d="M199 49.25C210.7 58.25 224.5 65.25 237.89 71.37C251.869 77.9596 266.411 83.2842 281.34 87.28C308.34 94.22 336.42 96.4 363.8 101.41C379.06 104.21 393.8 106 408.12 103.47C403.694 94.3993 398.537 85.704 392.7 77.47C389.52 80.57 386.43 83.6 383.26 85.39C371.56 91.92 356 88.22 343.4 87.1C327.08 85.63 310.27 84.94 294.23 81.36C278.19 77.78 263 71.13 248.76 62.78C240.69 58.09 184.76 28.09 185.76 9.02002C175.761 12.2642 166.059 16.3591 156.76 21.26C172.92 24.61 186.56 39.69 199 49.25Z" fill="url(#paint2_radial_47_227)"/>
<path style="mix-blend-mode:screen" opacity="0.3" d="M207.24 53.0801C198.24 44.5801 191.85 33.6101 181.64 26.4401C176.69 22.9701 171.57 19.8101 166.56 16.4401C163.22 17.9501 159.92 19.5001 156.69 21.2101C172.92 24.5601 186.56 39.6401 198.98 49.2101C203.97 53.0023 209.209 56.4566 214.66 59.5501C212.1 57.4901 209.63 55.3301 207.24 53.0801Z" fill="url(#paint3_radial_47_227)"/>
<path style="mix-blend-mode:screen" opacity="0.3" d="M403.15 94.1001C399.051 95.5335 394.767 96.372 390.43 96.5901C380.84 97.3601 371.31 96.7301 361.71 96.4901C356.36 96.3701 351.07 96.6501 345.71 95.8601C339.09 94.8601 332.28 93.0801 325.56 93.2801C322.34 93.3801 319.14 93.7101 315.96 94.1001C331.89 96.5701 347.96 98.5201 363.76 101.41C379.02 104.21 393.76 106 408.08 103.47C406.55 100.31 404.88 97.1901 403.15 94.1001Z" fill="url(#paint4_radial_47_227)"/>
<path style="mix-blend-mode:screen" opacity="0.5" d="M159.11 38.59C156.71 37.44 158.89 41.92 159.46 42.97C160.962 45.6724 162.691 48.2418 164.63 50.65C167.369 54.2488 170.425 57.5954 173.76 60.65C178.03 64.35 184.76 66.05 190.08 67.49C194.78 68.76 200.46 70.49 205.52 69.87C204.654 69.038 203.746 68.2503 202.8 67.51C187.17 60 174.74 46.15 159.11 38.59Z" fill="url(#paint5_radial_47_227)"/>
<path style="mix-blend-mode:screen" opacity="0.3" d="M110.83 141.57C125.43 153.23 140.47 164.18 155.83 174.81C184.83 194.81 214.43 213.27 246.83 227.28C264.1 234.73 281.7 241.34 299.27 247.99C315.1 253.99 330.74 259.59 345.27 268.39C359.49 277.01 373.66 284.52 390.16 287.71C391.61 287.99 393.07 288.22 394.52 288.45C397.473 284.143 400.263 279.68 402.89 275.06C407.238 267.372 411.034 259.386 414.25 251.16C412.02 250.63 409.8 250.08 407.57 249.54C398.94 247.43 390.51 245.95 381.57 246.37C373.34 246.76 365.12 247.89 356.87 248.2C321.97 249.56 290.04 236.85 259.27 221.71C222.936 203.884 188.038 183.269 154.89 160.05C140.197 149.64 126.805 137.507 115 123.91C108.81 117 102.68 110 95.39 104.23C91 100.74 86.41 97.43 82 94C79.4 98.62 77.0233 103.303 74.87 108.05C87.12 119 97.9 131.24 110.83 141.57Z" fill="url(#paint6_radial_47_227)"/>
<path style="mix-blend-mode:screen" opacity="0.5" d="M94.6701 110.81C90.0501 109.99 98.5001 121.81 98.7901 122.18C100.93 124.52 103.16 126.79 105.47 128.93C112.58 135.51 119.26 141.52 128.13 145.47C127.956 144.265 127.595 143.094 127.06 142C120.8 134.81 114.06 128.11 107.27 121.42C104 118.21 99.3601 111.63 94.6701 110.81Z" fill="url(#paint7_radial_47_227)"/>
<path style="mix-blend-mode:screen" opacity="0.5" d="M371.38 253.65C363.704 254.39 355.99 254.678 348.28 254.51C346.64 254.45 338.87 255.12 342.75 258.28C344.314 259.506 346.02 260.54 347.83 261.36C356.02 265.24 364.27 268.63 372.41 272.62C381.33 276.99 390.55 278.87 400.02 279.77C401.02 278.21 401.93 276.65 402.83 275.06C405.73 269.92 408.35 264.69 410.7 259.42C406.48 258.63 402.37 256.95 398.13 255.94C389.39 253.771 380.362 252.998 371.38 253.65Z" fill="url(#paint8_radial_47_227)"/>
<g style="mix-blend-mode:multiply" opacity="0.5">
<path d="M333.35 24C244.82 -26.14 132.35 5.00001 82.2601 93.49C32.1701 181.98 63.2601 294.43 151.73 344.59C240.2 394.75 352.73 363.59 402.83 275.1C452.93 186.61 421.87 74.11 333.35 24ZM164.35 294.44C138.114 279.577 116.874 257.267 103.317 230.333C89.7602 203.399 84.4946 173.049 88.1864 143.122C91.8782 113.195 104.362 85.0345 124.058 62.2022C143.754 39.3699 169.779 22.891 198.84 14.8494C227.902 6.80771 258.696 7.56453 287.328 17.0241C315.959 26.4837 341.143 44.2211 359.694 67.9934C378.245 91.7657 389.33 120.505 391.547 150.577C393.764 180.65 387.014 210.704 372.15 236.94C362.279 254.36 349.072 269.665 333.286 281.98C317.499 294.296 299.44 303.381 280.142 308.717C260.844 314.053 240.683 315.534 220.812 313.078C200.941 310.621 181.748 304.275 164.33 294.4L164.35 294.44Z" fill="#32BAE6"/>
</g>
<g style="mix-blend-mode:color-dodge" opacity="0.7">
<path d="M71.83 199.46C69.56 152.93 79.05 118.8 90.61 95C90.6373 94.9176 90.6707 94.8374 90.71 94.76C93.9283 86.9777 97.736 79.4525 102.1 72.25C84.34 93.85 62.69 131.58 63.23 186.9C64.13 280.39 133.85 334.53 175.81 349.65C175.81 349.65 77.11 307.51 71.83 199.46Z" fill="#C3E6F8"/>
</g>
<g style="mix-blend-mode:multiply" opacity="0.8">
<path d="M277.77 328.32C244.47 327.06 211.82 339.98 179.32 327.27C161.84 320.44 146.17 309.71 132.08 297.43C118.31 285.43 103.16 272.04 93.7101 256.22C83.8701 239.74 78.5201 221 67.9101 205C64.9101 200.43 61.7101 196 58.4601 191.58C59.7327 223.69 69.3816 254.908 86.449 282.136C103.516 309.364 127.409 331.655 155.754 346.795C184.099 361.935 215.911 369.398 248.031 368.442C280.152 367.487 311.465 358.147 338.86 341.35C318.53 336.69 298.7 329.12 277.77 328.32Z" fill="#32BAE6"/>
</g>
<path opacity="0.5" d="M417.39 242.35C416.33 245.54 415.16 248.71 413.93 251.87C445.64 277.79 462.57 297.96 457.58 306.76C452.59 315.56 426.53 311.41 387.88 297.46C344.77 281.91 285.97 254.16 223.29 218.66C160.43 183.04 106.29 146.76 70.76 117.73C39.13 91.8801 22.29 71.7701 27.26 63.0001C32.23 54.2301 58.07 58.3201 96.4 72.1001C98.4667 69.4334 100.597 66.8034 102.79 64.2101C47.3 43.0001 8.45004 36.1301 1.21004 48.9301C-6.02996 61.7301 20 91.6701 66.93 128.52C105.5 158.78 158.17 193.71 218.17 227.7C278 261.59 334.87 288.75 380.58 306.29C436.58 327.75 475.77 334.74 483.04 321.89C490.31 309.04 464.31 279.17 417.39 242.35Z" fill="url(#paint9_radial_47_227)"/>
<g style="mix-blend-mode:screen">
<path d="M93.4101 65.14C81.1003 60.3016 68.5189 56.1846 55.7301 52.81C49.3514 51.1256 42.862 49.8926 36.3101 49.12C33.0639 48.7489 29.7914 48.6619 26.5301 48.86C23.3301 49.14 20.0101 49.79 17.5901 51.68C16.4027 52.602 15.5436 53.8818 15.1401 55.33C14.9385 56.0776 14.8244 56.846 14.8001 57.62C14.7739 58.3914 14.8074 59.1637 14.9001 59.93C15.3328 63.1014 16.3212 66.1718 17.8201 69C20.8868 74.793 24.6406 80.1952 29.0001 85.09C37.7669 94.9331 47.3073 104.059 57.5301 112.38C67.6601 120.83 78.1801 128.83 88.8801 136.57C99.5801 144.31 110.45 151.82 121.47 159.14C132.49 166.46 143.6 173.61 154.82 180.6C166.04 187.59 177.32 194.49 188.69 201.25C200.06 208.01 211.47 214.67 222.93 221.25C234.39 227.83 245.93 234.4 257.42 240.89C269.04 246.89 281.06 252.63 292.96 258.34C304.86 264.05 316.9 269.59 328.96 275.04C341.02 280.49 353.14 285.75 365.32 290.9C377.5 296.05 389.7 301 402.09 305.56C414.433 310.24 427.034 314.21 439.83 317.45C446.163 319.107 452.659 320.059 459.2 320.29C462.39 320.29 465.73 319.96 468.34 318.41C469.589 317.632 470.486 316.398 470.84 314.97C471.191 313.47 471.191 311.91 470.84 310.41V310.22C470.735 308.749 470.443 307.297 469.97 305.9C469.76 305.17 469.48 304.46 469.2 303.75C468.92 303.04 468.65 302.32 468.31 301.64L467.31 299.56L466.18 297.56C465.49 296.19 464.6 294.91 463.8 293.56C463 292.21 462.05 291.01 461.19 289.73C460.33 288.45 459.34 287.23 458.4 286.02C457.46 284.81 456.5 283.56 455.47 282.4L452.47 278.87C451.47 277.7 450.35 276.59 449.3 275.46C448.25 274.33 447.21 273.15 446.08 272.08C443.83 269.92 441.7 267.67 439.41 265.57L435.97 262.41C434.82 261.36 433.7 260.28 432.52 259.28L425.44 253.19L432.65 259.12C433.88 260.12 435.02 261.12 436.19 262.12L439.71 265.21C442.05 267.21 444.24 269.46 446.53 271.6C447.67 272.65 448.71 273.81 449.8 274.92C450.89 276.03 452 277.15 453.04 278.3L456.17 281.78C457.23 282.93 458.17 284.17 459.17 285.39C460.17 286.61 461.17 287.79 462.05 289.08C462.93 290.37 463.95 291.57 464.77 292.9C465.59 294.23 466.53 295.51 467.27 296.9L468.43 298.9L469.49 301.02C469.84 301.72 470.15 302.45 470.44 303.19C470.765 303.917 471.049 304.661 471.29 305.42C471.848 306.961 472.185 308.574 472.29 310.21V310.02C472.739 311.74 472.783 313.54 472.42 315.28C471.984 317.093 470.876 318.673 469.32 319.7C466.19 321.62 462.65 321.92 459.32 321.99C452.57 321.99 445.98 320.76 439.48 319.33C426.573 316.203 413.856 312.34 401.39 307.76C376.39 298.84 351.96 288.56 327.79 277.76C315.697 272.36 303.667 266.823 291.7 261.15C279.7 255.46 267.82 249.84 255.9 243.74C244.34 237.29 232.78 230.81 221.31 224.2C209.84 217.59 198.29 210.94 187 204.1C175.71 197.26 164.36 190.37 153.15 183.3C141.94 176.23 130.77 169 119.76 161.68C108.75 154.36 97.8601 146.74 87.1601 138.9C76.4601 131.06 66.0201 122.9 55.9301 114.26C45.6975 105.761 36.1697 96.4469 27.4401 86.41C23.03 81.3575 19.2522 75.7865 16.1901 69.82C14.6137 66.7832 13.5975 63.4872 13.1901 60.09C13.0979 59.2132 13.0712 58.3307 13.1101 57.45L13.2601 56.18C13.3385 55.7345 13.442 55.2938 13.5701 54.86C14.1037 53.1089 15.1785 51.5721 16.6401 50.47C19.5401 48.3 23.0801 47.75 26.4101 47.47C29.7499 47.3164 33.0967 47.4636 36.4101 47.91C43.0093 48.8058 49.536 50.1726 55.9401 52C68.6955 55.5828 81.2107 59.9716 93.4101 65.14Z" fill="#44B0D6"/>
</g>
<defs>
<radialGradient id="paint0_radial_47_227" cx="0" cy="0" r="1" gradientUnits="userSpaceOnUse" gradientTransform="translate(227.954 10.3844) rotate(29.53) scale(410.81 410.81)">
<stop stop-color="#E3F3FC"/>
<stop offset="0.28" stop-color="#3FB9C9"/>
<stop offset="0.36" stop-color="#38B2C5"/>
<stop offset="0.46" stop-color="#269FBB"/>
<stop offset="0.58" stop-color="#0881AA"/>
<stop offset="0.6" stop-color="#047DA8"/>
<stop offset="0.73" stop-color="#086892"/>
<stop offset="0.87" stop-color="#0D4E76"/>
</radialGradient>
<radialGradient id="paint1_radial_47_227" cx="0" cy="0" r="1" gradientUnits="userSpaceOnUse" gradientTransform="translate(227.954 10.3844) rotate(29.53) scale(410.81 410.81)">
<stop stop-color="#E3F3FC"/>
<stop offset="0.28" stop-color="#3FB9C9"/>
<stop offset="0.36" stop-color="#38B2C5"/>
<stop offset="0.46" stop-color="#269FBB"/>
<stop offset="0.58" stop-color="#0881AA"/>
<stop offset="0.6" stop-color="#047DA8"/>
<stop offset="0.73" stop-color="#086892"/>
<stop offset="0.87" stop-color="#0D4E76"/>
</radialGradient>
<radialGradient id="paint2_radial_47_227" cx="0" cy="0" r="1" gradientUnits="userSpaceOnUse" gradientTransform="translate(208.064 -15.5128) rotate(29.53) scale(410.8 410.8)">
<stop stop-color="#E3F3FC"/>
<stop offset="0.28" stop-color="#3FB9C9"/>
<stop offset="0.36" stop-color="#38B7C7"/>
<stop offset="0.47" stop-color="#26B1C2"/>
<stop offset="0.59" stop-color="#07A7B9"/>
<stop offset="0.6" stop-color="#05A6B8"/>
<stop offset="0.68" stop-color="#078FA7"/>
<stop offset="0.85" stop-color="#0C567C"/>
<stop offset="0.87" stop-color="#0D4E76"/>
</radialGradient>
<radialGradient id="paint3_radial_47_227" cx="0" cy="0" r="1" gradientUnits="userSpaceOnUse" gradientTransform="translate(208.069 -15.5215) rotate(29.53) scale(410.84 410.84)">
<stop stop-color="#E3F3FC"/>
<stop offset="0.28" stop-color="#3FB9C9"/>
<stop offset="0.36" stop-color="#38B7C7"/>
<stop offset="0.47" stop-color="#26B1C2"/>
<stop offset="0.59" stop-color="#07A7B9"/>
<stop offset="0.6" stop-color="#05A6B8"/>
<stop offset="0.68" stop-color="#078FA7"/>
<stop offset="0.85" stop-color="#0C567C"/>
<stop offset="0.87" stop-color="#0D4E76"/>
</radialGradient>
<radialGradient id="paint4_radial_47_227" cx="0" cy="0" r="1" gradientUnits="userSpaceOnUse" gradientTransform="translate(208.064 -15.5128) rotate(29.53) scale(410.8 410.8)">
<stop stop-color="#E3F3FC"/>
<stop offset="0.28" stop-color="#3FB9C9"/>
<stop offset="0.36" stop-color="#38B7C7"/>
<stop offset="0.47" stop-color="#26B1C2"/>
<stop offset="0.59" stop-color="#07A7B9"/>
<stop offset="0.6" stop-color="#05A6B8"/>
<stop offset="0.68" stop-color="#078FA7"/>
<stop offset="0.85" stop-color="#0C567C"/>
<stop offset="0.87" stop-color="#0D4E76"/>
</radialGradient>
<radialGradient id="paint5_radial_47_227" cx="0" cy="0" r="1" gradientUnits="userSpaceOnUse" gradientTransform="translate(208.055 -15.5178) rotate(29.53) scale(410.79 410.79)">
<stop stop-color="#E3F3FC"/>
<stop offset="0.28" stop-color="#3FB9C9"/>
<stop offset="0.36" stop-color="#38B7C7"/>
<stop offset="0.47" stop-color="#26B1C2"/>
<stop offset="0.59" stop-color="#07A7B9"/>
<stop offset="0.6" stop-color="#05A6B8"/>
<stop offset="0.68" stop-color="#078FA7"/>
<stop offset="0.85" stop-color="#0C567C"/>
<stop offset="0.87" stop-color="#0D4E76"/>
</radialGradient>
<radialGradient id="paint6_radial_47_227" cx="0" cy="0" r="1" gradientUnits="userSpaceOnUse" gradientTransform="translate(208.06 -15.5265) rotate(29.53) scale(410.8 410.8)">
<stop stop-color="#E3F3FC"/>
<stop offset="0.28" stop-color="#3FB9C9"/>
<stop offset="0.36" stop-color="#38B7C7"/>
<stop offset="0.47" stop-color="#26B1C2"/>
<stop offset="0.59" stop-color="#07A7B9"/>
<stop offset="0.6" stop-color="#05A6B8"/>
<stop offset="0.68" stop-color="#078FA7"/>
<stop offset="0.85" stop-color="#0C567C"/>
<stop offset="0.87" stop-color="#0D4E76"/>
</radialGradient>
<radialGradient id="paint7_radial_47_227" cx="0" cy="0" r="1" gradientUnits="userSpaceOnUse" gradientTransform="translate(208.045 -15.478) rotate(29.53) scale(410.7 410.7)">
<stop stop-color="#E3F3FC"/>
<stop offset="0.28" stop-color="#3FB9C9"/>
<stop offset="0.36" stop-color="#38B7C7"/>
<stop offset="0.47" stop-color="#26B1C2"/>
<stop offset="0.59" stop-color="#07A7B9"/>
<stop offset="0.6" stop-color="#05A6B8"/>
<stop offset="0.68" stop-color="#078FA7"/>
<stop offset="0.85" stop-color="#0C567C"/>
<stop offset="0.87" stop-color="#0D4E76"/>
</radialGradient>
<radialGradient id="paint8_radial_47_227" cx="0" cy="0" r="1" gradientUnits="userSpaceOnUse" gradientTransform="translate(208.058 -15.4817) rotate(29.53) scale(410.77 410.77)">
<stop stop-color="#E3F3FC"/>
<stop offset="0.28" stop-color="#3FB9C9"/>
<stop offset="0.36" stop-color="#38B7C7"/>
<stop offset="0.47" stop-color="#26B1C2"/>
<stop offset="0.59" stop-color="#07A7B9"/>
<stop offset="0.6" stop-color="#05A6B8"/>
<stop offset="0.68" stop-color="#078FA7"/>
<stop offset="0.85" stop-color="#0C567C"/>
<stop offset="0.87" stop-color="#0D4E76"/>
</radialGradient>
<radialGradient id="paint9_radial_47_227" cx="0" cy="0" r="1" gradientUnits="userSpaceOnUse" gradientTransform="translate(271.943 141.36) rotate(29.53) scale(202.51 202.51)">
<stop stop-color="#E3F3FC"/>
<stop offset="0.28" stop-color="#3FB9C9"/>
<stop offset="0.33" stop-color="#46BBCB"/>
<stop offset="0.4" stop-color="#59C0CF"/>
<stop offset="0.48" stop-color="#77C9D7"/>
<stop offset="0.52" stop-color="#8ED0DD"/>
</radialGradient>
</defs>
</svg>

<svg xmlns="http://www.w3.org/2000/svg" xmlns:xlink="http://www.w3.org/1999/xlink" viewBox="0 0 484.25 368.51"><defs><style>.cls-1{isolation:isolate;}.cls-2{fill:url(#radial-gradient);}.cls-3,.cls-4,.cls-5,.cls-7{opacity:0.3;}.cls-14,.cls-3,.cls-4,.cls-5,.cls-6,.cls-7,.cls-8,.cls-9{mix-blend-mode:screen;}.cls-3{fill:url(#radial-gradient-3);}.cls-4{fill:url(#radial-gradient-4);}.cls-5{fill:url(#radial-gradient-5);}.cls-10,.cls-13,.cls-6,.cls-8,.cls-9{opacity:0.5;}.cls-6{fill:url(#radial-gradient-6);}.cls-7{fill:url(#radial-gradient-7);}.cls-8{fill:url(#radial-gradient-8);}.cls-9{fill:url(#radial-gradient-9);}.cls-10,.cls-12{fill:#32bae6;mix-blend-mode:multiply;}.cls-11{fill:#c3e6f8;opacity:0.7;mix-blend-mode:color-dodge;}.cls-12{opacity:0.8;}.cls-13{fill:url(#radial-gradient-10);}.cls-14{fill:#44b0d6;}</style><radialGradient id="radial-gradient" cx="305.35" cy="-1042.12" r="410.81" gradientTransform="translate(-551.37 766.63) rotate(29.53)" gradientUnits="userSpaceOnUse"><stop offset="0" stop-color="#e3f3fc"/><stop offset="0.28" stop-color="#3fb9c9"/><stop offset="0.36" stop-color="#38b2c5"/><stop offset="0.46" stop-color="#269fbb"/><stop offset="0.58" stop-color="#0881aa"/><stop offset="0.6" stop-color="#047da8"/><stop offset="0.73" stop-color="#086892"/><stop offset="0.87" stop-color="#0d4e76"/></radialGradient><radialGradient id="radial-gradient-3" cx="275.28" cy="-1054.85" r="410.8" gradientTransform="translate(-551.37 766.63) rotate(29.53)" gradientUnits="userSpaceOnUse"><stop offset="0" stop-color="#e3f3fc"/><stop offset="0.28" stop-color="#3fb9c9"/><stop offset="0.36" stop-color="#38b7c7"/><stop offset="0.47" stop-color="#26b1c2"/><stop offset="0.59" stop-color="#07a7b9"/><stop offset="0.6" stop-color="#05a6b8"/><stop offset="0.68" stop-color="#078fa7"/><stop offset="0.85" stop-color="#0c567c"/><stop offset="0.87" stop-color="#0d4e76"/></radialGradient><radialGradient id="radial-gradient-4" cx="275.28" cy="-1054.86" r="410.84" xlink:href="#radial-gradient-3"/><radialGradient id="radial-gradient-5" cx="275.28" cy="-1054.85" r="410.8" xlink:href="#radial-gradient-3"/><radialGradient id="radial-gradient-6" cx="275.27" cy="-1054.85" r="410.79" xlink:href="#radial-gradient-3"/><radialGradient id="radial-gradient-7" cx="275.27" cy="-1054.86" r="410.8" xlink:href="#radial-gradient-3"/><radialGradient id="radial-gradient-8" cx="275.28" cy="-1054.81" r="410.7" xlink:href="#radial-gradient-3"/><radialGradient id="radial-gradient-9" cx="275.29" cy="-1054.82" r="410.77" xlink:href="#radial-gradient-3"/><radialGradient id="radial-gradient-10" cx="408.18" cy="-949.84" r="202.51" gradientTransform="translate(-551.37 766.63) rotate(29.53)" gradientUnits="userSpaceOnUse"><stop offset="0" stop-color="#e3f3fc"/><stop offset="0.28" stop-color="#3fb9c9"/><stop offset="0.33" stop-color="#46bbcb"/><stop offset="0.4" stop-color="#59c0cf"/><stop offset="0.48" stop-color="#77c9d7"/><stop offset="0.52" stop-color="#8ed0dd"/></radialGradient></defs><g class="cls-1"><g id="Calque_2" data-name="Calque 2"><g id="Calque_1-2" data-name="Calque 1"><path class="cls-2" d="M402.83,275.06c-50.15,88.51-162.57,119.63-251.1,69.49S32.11,182,82.26,93.45,244.82-26.18,333.35,24,453,186.53,402.83,275.06Z"/><path class="cls-2" d="M402.83,275.06c-50.15,88.51-162.57,119.63-251.1,69.49S32.11,182,82.26,93.45,244.82-26.18,333.35,24,453,186.53,402.83,275.06Z"/><path class="cls-3" d="M199,49.25c11.7,9,25.5,16,38.89,22.12a258.89,258.89,0,0,0,43.45,15.91c27,6.94,55.08,9.12,82.46,14.13,15.26,2.8,30,4.59,44.32,2.06a186,186,0,0,0-15.42-26c-3.18,3.1-6.27,6.13-9.44,7.92C371.56,91.92,356,88.22,343.4,87.1c-16.32-1.47-33.13-2.16-49.17-5.74S263,71.13,248.76,62.78c-8.07-4.69-64-34.69-63-53.76a184,184,0,0,0-29,12.24C172.92,24.61,186.56,39.69,199,49.25Z"/><path class="cls-4" d="M207.24,53.08c-9-8.5-15.39-19.47-25.6-26.64-4.95-3.47-10.07-6.63-15.08-10-3.34,1.51-6.64,3.06-9.87,4.77,16.23,3.35,29.87,18.43,42.29,28a140.64,140.64,0,0,0,15.68,10.34C212.1,57.49,209.63,55.33,207.24,53.08Z"/><path class="cls-5" d="M403.15,94.1a45.45,45.45,0,0,1-12.72,2.49c-9.59.77-19.12.14-28.72-.1-5.35-.12-10.64.16-16-.63-6.62-1-13.43-2.78-20.15-2.58-3.22.1-6.42.43-9.6.82,15.93,2.47,32,4.42,47.8,7.31,15.26,2.8,30,4.59,44.32,2.06C406.55,100.31,404.88,97.19,403.15,94.1Z"/><path class="cls-6" d="M159.11,38.59c-2.4-1.15-.22,3.33.35,4.38a54.32,54.32,0,0,0,5.17,7.68,75.87,75.87,0,0,0,9.13,10c4.27,3.7,11,5.4,16.32,6.84,4.7,1.27,10.38,3,15.44,2.38a35.63,35.63,0,0,0-2.72-2.36C187.17,60,174.74,46.15,159.11,38.59Z"/><path class="cls-7" d="M110.83,141.57c14.6,11.66,29.64,22.61,45,33.24,29,20,58.6,38.46,91,52.47,17.27,7.45,34.87,14.06,52.44,20.71,15.83,6,31.47,11.6,46,20.4,14.22,8.62,28.39,16.13,44.89,19.32,1.45.28,2.91.51,4.36.74q4.43-6.46,8.37-13.39a186.51,186.51,0,0,0,11.36-23.9c-2.23-.53-4.45-1.08-6.68-1.62-8.63-2.11-17.06-3.59-26-3.17-8.23.39-16.45,1.52-24.7,1.83-34.9,1.36-66.83-11.35-97.6-26.49a783.36,783.36,0,0,1-104.38-61.66A225.34,225.34,0,0,1,115,123.91C108.81,117,102.68,110,95.39,104.23,91,100.74,86.41,97.43,82,94q-3.9,6.93-7.13,14.05C87.12,119,97.9,131.24,110.83,141.57Z"/><path class="cls-8" d="M94.67,110.81c-4.62-.82,3.83,11,4.12,11.37,2.14,2.34,4.37,4.61,6.68,6.75,7.11,6.58,13.79,12.59,22.66,16.54a11.74,11.74,0,0,0-1.07-3.47c-6.26-7.19-13-13.89-19.79-20.58C104,118.21,99.36,111.63,94.67,110.81Z"/><path class="cls-9" d="M371.38,253.65a196.2,196.2,0,0,1-23.1.86c-1.64-.06-9.41.61-5.53,3.77a24.85,24.85,0,0,0,5.08,3.08c8.19,3.88,16.44,7.27,24.58,11.26,8.92,4.37,18.14,6.25,27.61,7.15,1-1.56,1.91-3.12,2.81-4.71,2.9-5.14,5.52-10.37,7.87-15.64-4.22-.79-8.33-2.47-12.57-3.48A85.4,85.4,0,0,0,371.38,253.65Z"/><path class="cls-10" d="M333.35,24c-88.53-50.14-201-19-251.09,69.49s-19,200.94,69.47,251.1,201,19,251.1-69.49S421.87,74.11,333.35,24Zm-169,270.44a152.46,152.46,0,1,1,207.8-57.5A152.45,152.45,0,0,1,164.33,294.4Z"/><path class="cls-11" d="M71.83,199.46C69.56,152.93,79.05,118.8,90.61,95a1.73,1.73,0,0,1,.1-.24A165.46,165.46,0,0,1,102.1,72.25C84.34,93.85,62.69,131.58,63.23,186.9c.9,93.49,70.62,147.63,112.58,162.75C175.81,349.65,77.11,307.51,71.83,199.46Z"/><path class="cls-12" d="M277.77,328.32c-33.3-1.26-65.95,11.66-98.45-1.05-17.48-6.83-33.15-17.56-47.24-29.84-13.77-12-28.92-25.39-38.37-41.21C83.87,239.74,78.52,221,67.91,205c-3-4.57-6.2-9-9.45-13.42a184.24,184.24,0,0,0,280.4,149.77C318.53,336.69,298.7,329.12,277.77,328.32Z"/><path class="cls-13" d="M417.39,242.35c-1.06,3.19-2.23,6.36-3.46,9.52,31.71,25.92,48.64,46.09,43.65,54.89s-31.05,4.65-69.7-9.3c-43.11-15.55-101.91-43.3-164.59-78.8-62.86-35.62-117-71.9-152.53-100.93C39.13,91.88,22.29,71.77,27.26,63s30.81-4.68,69.14,9.1q3.1-4,6.39-7.89C47.3,43,8.45,36.13,1.21,48.93S20,91.67,66.93,128.52c38.57,30.26,91.24,65.19,151.24,99.18,59.83,33.89,116.7,61.05,162.41,78.59,56,21.46,95.19,28.45,102.46,15.6S464.31,279.17,417.39,242.35Z"/><path class="cls-14" d="M93.41,65.14A340.47,340.47,0,0,0,55.73,52.81a140.52,140.52,0,0,0-19.42-3.69,56.15,56.15,0,0,0-9.78-.26c-3.2.28-6.52.93-8.94,2.82a7,7,0,0,0-2.45,3.65,10,10,0,0,0-.34,2.29,15,15,0,0,0,.1,2.31A27.23,27.23,0,0,0,17.82,69,81.58,81.58,0,0,0,29,85.09a247.06,247.06,0,0,0,28.53,27.29c10.13,8.45,20.65,16.45,31.35,24.19s21.57,15.25,32.59,22.57,22.13,14.47,33.35,21.46,22.5,13.89,33.87,20.65,22.78,13.42,34.24,20,23,13.15,34.49,19.64c11.62,6,23.64,11.74,35.54,17.45s23.94,11.25,36,16.7,24.18,10.71,36.36,15.86S389.7,301,402.09,305.56a346.09,346.09,0,0,0,37.74,11.89,88.94,88.94,0,0,0,19.37,2.84c3.19,0,6.53-.33,9.14-1.88a5.66,5.66,0,0,0,2.5-3.44,10,10,0,0,0,0-4.56v-.19a17.35,17.35,0,0,0-.87-4.32c-.21-.73-.49-1.44-.77-2.15s-.55-1.43-.89-2.11l-1-2.08-1.13-2c-.69-1.37-1.58-2.65-2.38-4s-1.75-2.55-2.61-3.83-1.85-2.5-2.79-3.71-1.9-2.46-2.93-3.62l-3-3.53c-1-1.17-2.12-2.28-3.17-3.41s-2.09-2.31-3.22-3.38c-2.25-2.16-4.38-4.41-6.67-6.51l-3.44-3.16c-1.15-1.05-2.27-2.13-3.45-3.13l-7.08-6.09,7.21,5.93c1.23,1,2.37,2,3.54,3l3.52,3.09c2.34,2,4.53,4.25,6.82,6.39,1.14,1.05,2.18,2.21,3.27,3.32s2.2,2.23,3.24,3.38l3.13,3.48c1.06,1.15,2,2.39,3,3.61s2,2.4,2.88,3.69,1.9,2.49,2.72,3.82,1.76,2.61,2.5,4l1.16,2,1.06,2.12c.35.7.66,1.43.95,2.17a21.35,21.35,0,0,1,.85,2.23,17.35,17.35,0,0,1,1,4.79l0-.19a11.51,11.51,0,0,1,.13,5.26,7.36,7.36,0,0,1-3.1,4.42c-3.13,1.92-6.67,2.22-10,2.29-6.75,0-13.34-1.23-19.84-2.66a348.22,348.22,0,0,1-38.09-11.57c-25-8.92-49.43-19.2-73.6-30q-18.14-8.1-36.09-16.61c-12-5.69-23.88-11.31-35.8-17.41-11.56-6.45-23.12-12.93-34.59-19.54S198.29,210.94,187,204.1s-22.64-13.73-33.85-20.8S130.77,169,119.76,161.68s-21.9-14.94-32.6-22.78-21.14-16-31.23-24.64A246.48,246.48,0,0,1,27.44,86.41,82.54,82.54,0,0,1,16.19,69.82a28.48,28.48,0,0,1-3-9.73,17.75,17.75,0,0,1-.08-2.64l.15-1.27a12,12,0,0,1,.31-1.32,8.66,8.66,0,0,1,3.07-4.39c2.9-2.17,6.44-2.72,9.77-3a55.73,55.73,0,0,1,10,.44A139.63,139.63,0,0,1,55.94,52,313.11,313.11,0,0,1,93.41,65.14Z"/></g></g></g></svg>
